images/ib-ico-4.svg

<?xml version="1.0" encoding="UTF-8" standalone="no"?>
<svg width="86px" height="86px" viewBox="0 0 86 86" version="1.1" xmlns="http://www.w3.org/2000/svg" xmlns:xlink="http://www.w3.org/1999/xlink" xmlns:sketch="http://www.bohemiancoding.com/sketch/ns">
    <!-- Generator: Sketch 3.3.3 (12081) - http://www.bohemiancoding.com/sketch -->
    <title>ib-ico-4</title>
    <desc>Created with Sketch.</desc>
    <defs>
        <linearGradient x1="49.08522%" y1="50%" x2="49.3895484%" y2="49.2577567%" id="linearGradient-1">
            <stop stop-color="#E74C3C" offset="0%"></stop>
            <stop stop-color="#A82A1D" offset="100%"></stop>
        </linearGradient>
    </defs>
    <g id="Page-1" stroke="none" stroke-width="1" fill="none" fill-rule="evenodd" sketch:type="MSPage">
        <g id="ib-ico-4" sketch:type="MSArtboardGroup">
            <g id="Group" sketch:type="MSLayerGroup" transform="translate(5.000000, 0.000000)">
                <path d="M72.2589,19.1015556 L41.6404,1.37695556 C39.4896,0.127088889 36.65575,0.128044444 34.50495,1.37695556 L3.76485,19.1015556 C1.5789,20.3705333 0,22.7355333 0,25.2754 L0,60.7236444 C0,63.2635111 1.5542,65.6313778 3.74015,66.8984444 L34.35865,84.6230444 C35.435,85.2470222 36.70895,85.5786 37.95155,85.5786 C39.1951,85.5786 40.44435,85.2470222 41.51975,84.6230444 L72.24845,66.8984444 C74.4344,65.6294667 76,63.2625556 76,60.7236444 L76,25.2754 C76,22.7364889 74.44485,20.3705333 72.2589,19.1015556 L72.2589,19.1015556 Z M15.08505,69.8683111 C15.16105,65.6858444 18.4851,62.1111111 22.5682,62.1111111 L36.1,62.1111111 L36.1,82.3287556 C36.1,82.2704667 35.9214,82.1137556 35.7979,82.0411333 L15.08505,69.8683111 L15.08505,69.8683111 Z M24.7,43.3936889 C25.65,39.5475778 29.602,36.3111111 33.85515,36.3111111 L42.0071,36.3111111 C47.01265,36.3111111 51.1385,40.3827333 51.62585,45.2895111 C51.2525,52.4819778 45.33305,58.3385778 38.09025,58.3385778 C31.32815,58.3395333 25.65,53.4480444 24.7,46.9302 L24.7,43.3936889 L24.7,43.3936889 Z M28.5551,34.873 C31.008,32.4344222 34.37575,31.0374 38.0893,31.0374 C41.94155,31.0374 45.41665,32.4974889 47.8895,35.0994667 C46.1339,34.1544222 44.13225,33.4444444 42.0071,33.4444444 L33.85515,33.4444444 C31.95895,33.4444444 30.16725,34.1104667 28.5551,34.873 L28.5551,34.873 Z M40.11755,82.1395556 C39.80215,82.3230222 39.3794,82.4615778 39.0279,82.5552222 C39.02885,82.5313333 38.9519,82.5064889 38.9519,82.4826 L38.9519,62.1111111 L54.45115,62.1111111 C58.3452,62.1111111 61.55145,65.3810222 61.9058,69.2949778 L40.11755,82.1395556 L40.11755,82.1395556 Z M73.15,60.7236444 C73.15,62.2420222 72.14205,63.6562444 70.8339,64.4159111 L64.46795,67.9533778 C63.6633,64.1722444 60.8,61.1450444 57,60.0652667 L57,58.7313111 C57,57.9420222 56.7131,57.3333333 55.9265,57.3333333 L55.1,57.3333333 L55.1,55.0810889 C55.1,54.2898889 54.4616,53.6477556 53.675,53.6477556 C52.8884,53.6477556 52.25,54.2898889 52.25,55.0810889 L52.25,57.3333333 L48.79485,57.3333333 C51.0416,55.4222222 52.76205,52.8202444 53.70065,49.9182222 C56.33025,49.7787111 58.19985,47.5943111 58.19985,44.9158889 C58.19985,44.8499556 57.9481,44.7782889 57.9481,44.7133111 L57.9481,34.5299556 C58.8981,34.0502667 59.53175,33.1768889 59.53175,32.1697333 C59.53175,30.6523111 58.4193,29.4167778 56.9107,29.4167778 C55.40115,29.4167778 54.0018,30.6513556 54.0018,32.1697333 C54.0018,33.1434444 55.09715,33.9958 55.09715,34.4850444 L55.09715,40.3808222 C55.09715,40.1199556 54.17945,39.9651556 53.54485,39.9221556 C51.47005,33.1883556 45.3359,28.2834889 37.97055,28.2834889 C30.58335,28.2834889 24.3808,33.2160667 22.32405,39.9775778 C19.99655,40.4008889 18.25045,42.4448222 18.25045,44.9063333 C18.25045,47.3936444 20.0754,49.4652889 22.43805,49.8608889 C23.3757,52.7868 25.11895,55.4222222 27.38185,57.3333333 L19.77995,57.3333333 C18.9943,57.3333333 18.05,57.9420222 18.05,58.7332222 L18.05,60.5612 C15.2,61.9878444 12.7946,64.9443333 12.22365,68.4913556 L5.08725,64.4159111 C3.781,63.6572 2.85,62.2439333 2.85,60.7236444 L2.85,25.2754 C2.85,23.7570222 3.85795,22.3428 5.16515,21.5840889 L35.78365,3.85948889 C36.4268,3.48586667 37.20865,3.28902222 37.95155,3.28902222 C38.6935,3.28902222 39.45065,3.48682222 40.09475,3.85948889 L70.8244,21.5840889 C72.13065,22.3428 73.15,23.7579778 73.15,25.2754 L73.15,60.7236444 L73.15,60.7236444 Z" id="Shape" fill="url(#linearGradient-1)" sketch:type="MSShapeGroup"></path>
                <path d="M45.4727,48.5699333 C45.75105,48.8499111 46.11585,48.9884667 46.48065,48.9884667 C46.84545,48.9884667 47.2112,48.8489556 47.48955,48.5699333 C48.04625,48.0099778 48.04625,47.1031556 47.48955,46.5432 L41.5112,40.5308444 C40.9545,39.9708889 40.05295,39.9708889 39.49625,40.5308444 C38.93955,41.0908 38.93955,41.9985778 39.49625,42.5575778 L45.4727,48.5699333 Z M42.769,47.6784 C42.2123,47.1184444 41.31075,47.1184444 40.75405,47.6784 C40.19735,48.2364444 40.19735,49.1451778 40.75405,49.7051333 L43.30955,52.2765333 C43.5879,52.5565111 43.9527,52.6960222 44.31845,52.6960222 C44.68325,52.6960222 45.04805,52.5565111 45.3264,52.2765333 C45.8831,51.7175333 45.8831,50.8097556 45.3264,50.2498 L42.769,47.6784 Z M25.574,65.3275111 C23.6816,65.3275111 22.14165,66.8755111 22.14165,68.7789778 C22.14165,70.6814889 23.6816,72.2304444 25.574,72.2304444 C27.4664,72.2304444 29.00635,70.6814889 29.00635,68.7789778 C29.00635,66.8755111 27.4664,65.3275111 25.574,65.3275111 Z M41.93395,74.1769111 L40.5308,75.5882667 C39.9741,76.1482222 39.9741,77.0550444 40.5308,77.615 C40.80915,77.8949778 41.17395,78.0335333 41.53875,78.0335333 C41.9045,78.0335333 42.2693,77.8940222 42.54765,77.615 L43.94985,76.2036444 C44.50655,75.6436889 44.50655,74.7368667 43.94985,74.1769111 C43.39315,73.6169556 42.49065,73.6169556 41.93395,74.1769111 Z M41.93395,68.9825111 L40.5308,70.3938667 C39.9741,70.9538222 39.9741,71.8606444 40.5308,72.4206 C40.80915,72.7005778 41.17395,72.8400889 41.53875,72.8400889 C41.9045,72.8400889 42.2693,72.7005778 42.54765,72.4206 L43.94985,71.0092444 C44.50655,70.4492889 44.50655,69.5424667 43.94985,68.9825111 C43.39315,68.4225556 42.49065,68.4225556 41.93395,68.9825111 Z M15.52965,32.2165556 L14.59105,31.7005556 L14.07805,30.7564667 C13.8282,30.2968444 13.34845,30.0101778 12.82785,30.0101778 C12.30725,30.0101778 11.8275,30.2958889 11.57765,30.7555111 L11.0637,31.6996 L10.1251,32.2165556 C9.66815,32.4678667 9.3841,32.9504222 9.3841,33.4740667 C9.3841,33.9977111 9.66815,34.4802667 10.1251,34.7315778 L11.0637,35.2485333 L11.57765,36.1926222 C11.8275,36.6522444 12.30725,36.9379556 12.82785,36.9379556 C13.3494,36.9379556 13.8282,36.6522444 14.07805,36.1916667 L14.59105,35.2475778 L15.52965,34.7315778 C15.9866,34.4802667 16.27065,33.9977111 16.27065,33.4740667 C16.27065,32.9504222 15.9866,32.4678667 15.52965,32.2165556 Z M34.3881,17.1350222 L33.4495,16.6190222 L32.9365,15.6749333 C32.68665,15.2153111 32.2069,14.9286444 31.6863,14.9286444 C31.1657,14.9286444 30.68595,15.2143556 30.4361,15.6739778 L29.92215,16.6180667 L28.98355,17.1350222 C28.5266,17.3863333 28.24255,17.8688889 28.24255,18.3925333 C28.24255,18.9161778 28.5266,19.3987333 28.98355,19.6500444 L29.92215,20.167 L30.4361,21.1110889 C30.68595,21.5707111 31.1657,21.8564222 31.6863,21.8564222 C32.20785,21.8564222 32.68665,21.5707111 32.9365,21.1101333 L33.4495,20.1660444 L34.3881,19.6500444 C34.84505,19.3987333 35.1291,18.9161778 35.1291,18.3925333 C35.1291,17.8688889 34.84505,17.3863333 34.3881,17.1350222 Z M68.34395,34.3407556 L67.4044,33.8247556 L66.89045,32.8797111 C66.6406,32.4200889 66.1599,32.1343778 65.6412,32.1343778 C65.11965,32.1343778 64.6399,32.4200889 64.391,32.8806667 L63.87895,33.8247556 L62.9413,34.3407556 C62.48435,34.5920667 62.2003,35.0746222 62.2003,35.5982667 C62.2003,36.1219111 62.48435,36.6044667 62.9413,36.8557778 L63.87895,37.3717778 L64.391,38.3158667 C64.64275,38.7754889 65.12155,39.0612 65.6412,39.0612 C66.16275,39.0612 66.64155,38.7754889 66.89045,38.3168222 L67.4044,37.3727333 L68.34395,36.8567333 C68.799,36.6054222 69.084,36.1228667 69.084,35.5992222 C69.084,35.0755778 68.8009,34.5920667 68.34395,34.3407556 Z M48.9858,16.7556667 C46.5519,16.7556667 44.5721,18.7460889 44.5721,21.1942222 C44.5721,23.6423556 46.5519,25.6337333 48.9858,25.6337333 C51.41875,25.6337333 53.39855,23.6423556 53.39855,21.1942222 C53.39855,18.7470444 51.41875,16.7556667 48.9858,16.7556667 Z" id="Shape" fill="#CD2122" sketch:type="MSShapeGroup"></path>
            </g>
        </g>
    </g>
</svg>

<svg width="86" height="86" xmlns="http://www.w3.org/2000/svg"><defs><linearGradient x1="49.085%" y1="50%" x2="49.39%" y2="49.258%" id="linearGradient-1"><stop stop-color="#E74C3C" offset="0%"/><stop stop-color="#A82A1D" offset="100%"/></linearGradient></defs><g id="Page-1" stroke="none" stroke-width="1" fill="none" fill-rule="evenodd"><g id="ib-ico-4"><g id="Group" transform="translate(5)"><path d="M72.259 19.102L41.64 1.377c-2.15-1.25-4.984-1.249-7.135 0L3.765 19.102C1.579 20.37 0 22.736 0 25.275v35.449c0 2.54 1.554 4.907 3.74 6.174l30.62 17.725a7.256 7.256 0 003.593.956 7.16 7.16 0 003.568-.956l30.728-17.725C74.434 65.63 76 63.263 76 60.724V25.275c0-2.539-1.555-4.904-3.741-6.173zM15.085 69.868c.076-4.182 3.4-7.757 7.483-7.757H36.1V82.33c0-.059-.179-.215-.302-.288L15.085 69.868zM24.7 43.394c.95-3.846 4.902-7.083 9.155-7.083h8.152c5.006 0 9.132 4.072 9.619 8.979-.373 7.192-6.293 13.049-13.536 13.049-6.762 0-12.44-4.891-13.39-11.409v-3.536zm3.855-8.521c2.453-2.439 5.82-3.836 9.534-3.836 3.853 0 7.328 1.46 9.8 4.062-1.755-.945-3.757-1.655-5.882-1.655h-8.152c-1.896 0-3.688.666-5.3 1.429zM40.118 82.14c-.316.183-.739.322-1.09.415 0-.024-.076-.049-.076-.072V62.11h15.5c3.893 0 7.1 3.27 7.454 7.184L40.118 82.14zM73.15 60.724c0 1.518-1.008 2.932-2.316 3.692l-6.366 3.537c-.805-3.78-3.668-6.808-7.468-7.888v-1.334c0-.789-.287-1.398-1.074-1.398H55.1v-2.252a1.43 1.43 0 00-1.425-1.433 1.43 1.43 0 00-1.425 1.433v2.252h-3.455c2.247-1.91 3.967-4.513 4.906-7.415 2.63-.14 4.499-2.324 4.499-5.002 0-.066-.252-.138-.252-.203V34.53c.95-.48 1.584-1.353 1.584-2.36 0-1.518-1.113-2.753-2.621-2.753-1.51 0-2.91 1.234-2.91 2.753 0 .973 1.096 1.826 1.096 2.315v5.896c0-.261-.918-.416-1.552-.459-2.075-6.734-8.21-11.639-15.574-11.639-7.388 0-13.59 4.933-15.647 11.695-2.327.423-4.074 2.467-4.074 4.928a5.038 5.038 0 004.188 4.955c.938 2.926 2.681 5.561 4.944 7.472H19.78c-.786 0-1.73.609-1.73 1.4v1.828c-2.85 1.427-5.255 4.383-5.826 7.93l-7.137-4.075c-1.306-.759-2.237-2.172-2.237-3.692V25.275c0-1.518 1.008-2.932 2.315-3.69L35.784 3.858a4.404 4.404 0 012.168-.57c.742 0 1.499.198 2.143.57l30.73 17.725c1.306.759 2.325 2.174 2.325 3.691v35.449z" id="Shape" fill="url(#linearGradient-1)"/><path d="M45.473 48.57a1.421 1.421 0 002.017 0 1.439 1.439 0 000-2.027l-5.979-6.012a1.418 1.418 0 00-2.015 0 1.439 1.439 0 000 2.027l5.977 6.012zm-2.704-.892a1.418 1.418 0 00-2.015 0 1.439 1.439 0 000 2.027l2.556 2.572c.278.28.643.419 1.008.419s.73-.14 1.008-.42a1.439 1.439 0 000-2.026l-2.557-2.572zm-17.195 17.65c-1.892 0-3.432 1.548-3.432 3.451 0 1.902 1.54 3.451 3.432 3.451s3.432-1.549 3.432-3.451c0-1.903-1.54-3.451-3.432-3.451zm16.36 8.849l-1.403 1.411a1.439 1.439 0 000 2.027 1.42 1.42 0 002.017 0l1.402-1.411a1.439 1.439 0 000-2.027 1.42 1.42 0 00-2.016 0zm0-5.194l-1.403 1.41a1.439 1.439 0 000 2.028 1.42 1.42 0 002.017 0l1.402-1.412a1.439 1.439 0 000-2.026 1.42 1.42 0 00-2.016 0zM15.53 32.217l-.939-.516-.513-.945c-.25-.46-.73-.746-1.25-.746s-1 .286-1.25.746l-.514.944-.939.517a1.435 1.435 0 00-.74 1.257c0 .524.283 1.006.74 1.258l.939.517.514.944a1.422 1.422 0 002.5-.001l.513-.944.939-.516c.457-.252.74-.734.74-1.258s-.283-1.006-.74-1.257zm18.858-15.082l-.938-.516-.514-.944c-.25-.46-.73-.746-1.25-.746s-1 .285-1.25.745l-.514.944-.938.517a1.435 1.435 0 00-.741 1.258c0 .523.284 1.006.74 1.257l.94.517.513.944a1.422 1.422 0 002.5-.001l.514-.944.938-.516a1.435 1.435 0 000-2.515zm33.956 17.206l-.94-.516-.514-.945a1.42 1.42 0 00-2.5.001l-.511.944-.938.516a1.435 1.435 0 00-.74 1.257c0 .524.283 1.006.74 1.258l.938.516.512.944a1.421 1.421 0 002.5.001l.513-.944.94-.516a1.438 1.438 0 000-2.516zM48.986 16.756c-2.434 0-4.414 1.99-4.414 4.438 0 2.448 1.98 4.44 4.414 4.44 2.433 0 4.413-1.992 4.413-4.44 0-2.447-1.98-4.438-4.413-4.438z" id="Shape" fill="#CD2122"/></g></g></g></svg>
